X:94
%%etbk:tnset id:33,pos:1,rep:3x,ant:
%%etbk:pldat 2016-09-07T16:22,2016-07-05T17:30,2016-01-21T19:26,2016-01-03T13:33,2015-12-31T14:17,2015-12-29T16:07,2015-11-29T14:28,2015-11-25T17:14,2015-07-08T16:02,2015-02-06T18:14,2015-01-17T15:13,2014-12-13T16:09,2014-12-06T16:01,2014-12-02T17:26,2014-09-09T18:48,2014-05-21T19:13,2014-05-19T18:20,2014-05-17T20:34,2014-05-13T18:46,2014-05-02T17:12,2014-03-25T17:07,2014-02-09T11:37,2014-02-06T18:58,2013-11-17T16:16,2013-11-03T15:18,2013-08-27T18:51,2013-05-05T14:19,2013-04-30T17:41
T: New Custom House, The
Z: Piano Box Version by Martin Fleischmann
H: Created 2013-02-19 /  Last Modified 2013-02-19
M: 4/4
L: 1/8
R: reel
K:Ddor
|: "dm"!5!A!1!D !3!(3D!2!D!1!D !2!E!4!G!2!AB | "am"!4!c!2!A!1!G!2!E !1!C!2!E!3!G!5!c | "dm"!4!A!1!DDE !3!F!4!G!2!AB | "am"!4!c3d !5!dc!2!A!1!G |
"dm"!2!A!1!D!5!d!1!D !2!E!4!G!2!AB | "am"!4!c!2!A!1!G!2!E !1!C!2!E!3!G!5!c | "dm"!4!A!1!DDE !3!F!4!G!2!AB | "am"!4!c!2!A!1!G!2!E "dm"E!1!DD2 :|
|: "dm"!2!A2!4!d!3!d !1!A!3!d!5!f!3!d | "am"!4!ed!2!c!1!d !2!ef!4!g2 | "dm"!1!A!3!d!2!d!3!d !1!A!3!d!5!f!3!d | "am"!4!ed!2!c!3!d "dm"!4!e!3!d!2!d!3!d |
"dm"!1!A2!3!dd !1!Ad!5!fd | "am"!4!ed!2!c!1!d ef!4!g2 | "dm"!5!af!4!ge !1!dd!2!c!1!d | "am"!2!e!5!aag "dm"!2!e!1!dd2 :|


